X: 854
T: Gökteki Yıldızın Üçü Terazi
C: Avanoslu Selahattin
O: Turkey
F: http://compmusic.upf.edu/node/140
N: hicaz--turku--sofyan--gokteki_yildizin--
N: makam= hicaz
N: form= turku
N: usul= sofyan = 4/4
M: 4/4
L: 1/16
K: C _7/8B ^f ^c 
Q: 1/4=63
%%MIDI tuningsystem comma53
G2A2 ABcd d2dc BBBd  | cBA/G/A A4 BcBA GFG2  | 
w:  Gök te ki  *  yıl *  dı zın  *  ü çü   |  te *  ra *  *  *  zi    | 
z2dd dd{e}d/c/d d2dc {c}B3/2A/Bd  | \
w:  Poy raz la rı  *  *  *  *  gör dü  geç *  ti   | 
cBA/G/A A4 A8  | 
w:  bi *  ra *  *  *  zı    | 
G2A2 ABcd d2dc BB2d  | cBA/G/A A4 BcBA GFG2  | 
w:  Bu  fe le *  ğin  *  bi ze *  yi miş   |  ga *  ra *  *  *  zı    | 
z2dd dd/e/d/c/d dd2c {c}B3/2A/Bd  | \
w:  Fe lek  be ni  *  *  *  *  ta şa  *  *  çal *  dı   | 
cBA/G/A A4 A8  | 
w:  ney *  le *  *  *  yim    | 
G2A2 ABcd d2dc BBBd  | cBA/G/A A4 BcBA GFG2  | 
w:  Gök te ki  *  yıl *  dı zın  *  ü çü   |  te *  ra *  *  *  zi    | 
z2dd dd{e}d/c/d d2dc {c}B3/2A/Bd  | \
w:  Poy raz la rı  *  *  *  *  gör dü  geç *  ti   | 
cBA/G/A A4 A8  | 
w:  bi *  ra *  *  *  zı    | 
G2A2 ABcd d2dc BB2d  | cBA/G/A A4 BcBA GFG2  | 
w:  Bu  fe le *  ğin  *  bi ze *  yi miş   |  ga *  ra *  *  *  zı    | 
z2dd dd/e/d/c/d dd2c {c}B3/2A/Bd  | \
w:  Fe lek  be ni  *  *  *  *  ta şa  *  *  çal *  dı   | 
cBA/G/A A4 A8  | 
w:  ney *  le *  *  *  yim    | 
|


